components/Common/Svg/svgs/redesign.svg

<svg
  width="42"
  height="45"
  viewBox="0 0 42 45"
  fill="none"
  xmlns="http://www.w3.org/2000/svg"
>
  <path
    d="M16 28C22.6274 28 28 22.6274 28 16C28 9.37258 22.6274 4 16 4C9.37258 4 4 9.37258 4 16C4 22.6274 9.37258 28 16 28Z"
    stroke="#161616"
    stroke-width="2"
    stroke-linecap="round"
    stroke-linejoin="round"
  ></path>
  <path
    d="M22 26.3951V22L16 9L10 22V26.3955"
    stroke="#161616"
    stroke-width="2"
    stroke-linecap="round"
    stroke-linejoin="round"
  ></path>
  <path
    d="M16 24C16 23.2044 16.3161 22.4413 16.8787 21.8787C17.4413 21.3161 18.2044 21 19 21C19.7956 21 20.5587 21.3161 21.1213 21.8787C21.6839 22.4413 22 23.2044 22 24"
    stroke="#161616"
    stroke-width="2"
    stroke-linecap="round"
    stroke-linejoin="round"
  ></path>
  <path
    d="M16 28V24C16 23.2044 15.6839 22.4413 15.1213 21.8787C14.5587 21.3161 13.7956 21 13 21C12.2044 21 11.4413 21.3161 10.8787 21.8787C10.3161 22.4413 10 23.2044 10 24"
    stroke="#161616"
    stroke-width="2"
    stroke-linecap="round"
    stroke-linejoin="round"
  ></path>
  <path
    d="M12.7695 16H19.2311"
    stroke="#161616"
    stroke-width="2"
    stroke-linecap="round"
    stroke-linejoin="round"
  ></path>
  <path
    d="M33.1227 17.6335L27.8775 22.8787L28.5846 26.4143L32.1201 27.1214L37.3653 21.8762L37.3659 21.8759C38.0151 23.4085 38.1704 25.1053 37.8101 26.7302C37.4498 28.3551 36.5918 29.8273 35.3557 30.9418C34.1195 32.0563 32.5666 32.7576 30.9132 32.9482C29.2598 33.1388 27.588 32.8091 26.1307 32.0051L26.1309 32.0049L19.1201 40.1214C18.5574 40.6835 17.7945 40.9991 16.9991 40.9989C16.2038 40.9986 15.4411 40.6826 14.8787 40.1202C14.3163 39.5578 14.0002 38.7951 14 37.9997C13.9998 37.2044 14.3154 36.4415 14.8775 35.8787L22.9939 28.8681L22.9937 28.8682C22.1897 27.4108 21.8601 25.7391 22.0507 24.0857C22.2413 22.4323 22.9426 20.8794 24.0571 19.6432C25.1716 18.407 26.6437 17.5491 28.2686 17.1888C29.8936 16.8285 31.5904 16.9838 33.1229 17.633L33.1227 17.6335Z"
    fill="#FFF281"
    stroke="#161616"
    stroke-width="2"
    stroke-linecap="round"
    stroke-linejoin="round"
  ></path>
</svg>

<svg width="42" height="45" viewBox="0 0 42 45" fill="none" xmlns="http://www.w3.org/2000/svg"><path d="M16 28c6.627 0 12-5.373 12-12S22.627 4 16 4 4 9.373 4 16s5.373 12 12 12Z" stroke="#161616" stroke-width="2" stroke-linecap="round" stroke-linejoin="round"/><path d="M22 26.395V22L16 9l-6 13v4.395" stroke="#161616" stroke-width="2" stroke-linecap="round" stroke-linejoin="round"/><path d="M16 24a3 3 0 0 1 6 0M16 28v-4a3 3 0 0 0-6 0M12.77 16h6.461" stroke="#161616" stroke-width="2" stroke-linecap="round" stroke-linejoin="round"/><path d="m33.123 17.634-5.245 5.245.707 3.535 3.535.707 5.245-5.245h0a8.003 8.003 0 0 1-11.234 10.13v-.001l-7.01 8.116a3 3 0 0 1-4.243-4.242l8.116-7.01h0a8.003 8.003 0 0 1 10.129-11.236h0Z" fill="#FFF281" stroke="#161616" stroke-width="2" stroke-linecap="round" stroke-linejoin="round"/></svg>
